X:1
T:Title
L:1/8
M:6/8
K:Db
V:1 treble nm="Grand Piano"
V:1
 z3[Q:1/4=140] B2 d | B2 d B2 A | B3- B2 A | G6- | G3 E2 F | A2 A F2 A | B6- | B3 A2 c | %8
 A2 c A2 =G | A3- A2 G | F6- | F3 F2 E | D2 E D2 E | F6- | F3 F2 G | A2 _c- c<BA | A2 B/A/ G3- | %17
 G3 A2 G | F2 d B2 d | B6- | B3 B2 c | d3- d3/2d3/2- | d3/2c3/2- c3/2B3/2 | B3 A3- | A3 A2 B | %25
 A2 B A2 G | F6- | F3 E3/2E3/2 | E3- E3/2F3/2- | F3/2D3/2- D3/2C3/2 | B,6- | B,3 z3 |] %32

